X:1055
T:Goodbye Johnny
C:Joe Buchanan's Scottish Tome - Page 636.2
I:636 2
Z:Carl Allison
R:Waltz
L:1/4
M:3/4
K:D
"D"F2 F | "A7"F2 E | "A7"E2 D | "D"D2 F | A2 B | "D7"A2 F | "D"A3- | A3 |
"G"B2 d | B2 A | "D"F2 D | "Bm"F2 E | "E7"E2 F | "A7"E3- | E2 A |
"D"F2 F | "A7"F2 E | "A7"E2 D | "D"D2 F | A2 B | "D"A2 F | "D"A3- | "D7"A3 |
"G"B2 c | "Em"d2 c | B2 A | "D"F2 D | "A7"E2 D | "D"D2 "A"E | "D"D3- | D3 :|

